src/assests/navigation/common-icons-menu.svg

<?xml version="1.0" encoding="UTF-8"?>
<svg width="26px" height="26px" viewBox="0 0 26 26" version="1.1" xmlns="http://www.w3.org/2000/svg" xmlns:xlink="http://www.w3.org/1999/xlink">
    <g id="Home-page" stroke="none" stroke-width="1" fill="none" fill-rule="evenodd">
        <g id="HighLevel---Search-hover" transform="translate(-24.000000, -125.000000)">
            <g id="all_inclusive-24px" transform="translate(24.000000, 125.000000)">
                <polygon id="Path" points="0 0 26 0 26 26 0 26"></polygon>
                <path d="M16.0658333,7.7063197 L13,10.5055762 L11.3533333,12 L11.3641667,12 L8.45,14.6654275 C7.75666667,15.3791822 6.83583333,15.7695167 5.85,15.7695167 C3.82416667,15.7695167 2.1775,14.0855019 2.1775,12 C2.1775,9.91449814 3.82416667,8.23048327 5.85,8.23048327 C6.83583333,8.23048327 7.75666667,8.62081784 8.49333333,9.37918216 L9.7175,10.4944238 L11.3533333,9 L9.98833333,7.76208178 C8.88333333,6.62453532 7.41,6 5.85,6 C2.62166667,6 0,8.69888476 0,12 C0,15.3011152 2.62166667,18 5.85,18 C7.41,18 8.88333333,17.3754647 9.93416667,16.2936803 L13,13.5055762 L13.0108333,13.5167286 L14.6466667,12 L14.6358333,12 L17.55,9.33457249 C18.2433333,8.62081784 19.1641667,8.23048327 20.15,8.23048327 C22.1758333,8.23048327 23.8225,9.91449814 23.8225,12 C23.8225,14.0855019 22.1758333,15.7695167 20.15,15.7695167 C19.175,15.7695167 18.2433333,15.3791822 17.5066667,14.6208178 L16.2716667,13.4944238 L14.6358333,14.9888476 L16.0116667,16.2379182 C17.1166667,17.3643123 18.5791667,17.9888476 20.15,17.9888476 C23.3783333,17.9888476 26,15.3011152 26,11.9888476 C26,8.67657993 23.3783333,6 20.15,6 C18.59,6 17.1166667,6.62453532 16.0658333,7.7063197 Z" id="Path" fill="currentColor" fill-rule="nonzero"></path>
            </g>
        </g>
    </g>
</svg>

<svg width="26" height="26" xmlns="http://www.w3.org/2000/svg"><g fill="none" fill-rule="evenodd"><path d="M0 0h26v26H0z"/><path d="M16.066 7.706L13 10.506 11.353 12h.011L8.45 14.665a3.593 3.593 0 01-2.6 1.105c-2.026 0-3.672-1.684-3.672-3.77 0-2.086 1.646-3.77 3.672-3.77.986 0 1.907.39 2.643 1.15l1.224 1.114L11.353 9 9.988 7.762A5.735 5.735 0 005.85 6C2.622 6 0 8.699 0 12s2.622 6 5.85 6c1.56 0 3.033-.625 4.084-1.706L13 13.506l.01.01L14.648 12h-.011l2.914-2.665a3.593 3.593 0 012.6-1.105c2.026 0 3.673 1.684 3.673 3.77 0 2.086-1.647 3.77-3.673 3.77-.975 0-1.907-.39-2.643-1.15l-1.235-1.126-1.636 1.495 1.376 1.249a5.75 5.75 0 004.138 1.75c3.228 0 5.85-2.687 5.85-6C26 8.678 23.378 6 20.15 6c-1.56 0-3.033.625-4.084 1.706z" fill="currentColor" fill-rule="nonzero"/></g></svg>
